X: 618
%
U:~=!turn!
T: Urquhart Castle
C:Capt. Fraser
O:Scotland
B:Keith Norman MacDonald : "The Skye collection of the best reels & strathspeys extant" : 1887
Z:Ralph Palmer
R:Strathspey
M:C
L:1/8
K:Gm
B |\
B,>CD<B F>BD>f | e/d/c/B/ A<B F<BD>C | B,>CD<B F<BD<d | B>GA>^F G<G,G, :|
f |\
e/d/c/B/ f>B g>Bf>c | d<gg>a {ga}b>ag>f | e/d/c/B/ f>B g>Bf<b | f<dd>c d<gg>b |
d<bc<a B<gA<f | G<BA<B F<BD>C | B,>CD<E F>ED>d | B<G A>^F GG,G, |]


